X: 19060
T: Irene Anderson's
R: strathspey
M: 4/4
K: Gmajor
D2|G2 B>c d2 e>f|g2 c>e d>B G<B|c2 e>c d>BA>G|G>A B<d A2 D2|
G2 B>c d2 e>f|g2 c>e d>B G<B|c2 e>c d>BA>G|E>G F<A G2:|
B>d|g2 c>e d>B G2|c>de<c d>BG>f|g>ef>d e>cd>B|A>d ^c<e d>e f<a|
g2 c>e d>B G2|c>d e<c d>B G<B|c2 e>c d>BA>G|E>G F<A G2:|

